src/topics/icons/eclipse.svg

<svg height="240" preserveAspectRatio="xMidYMid" viewBox="0 0 256 240" width="256" xmlns="http://www.w3.org/2000/svg" xmlns:xlink="http://www.w3.org/1999/xlink"><linearGradient id="a"><stop offset=".3033" stop-color="#473788"/><stop offset=".872" stop-color="#2c2255"/></linearGradient><linearGradient id="b" x1="49.999699%" x2="49.999699%" xlink:href="#a" y1="1089.3962%" y2="-159.499661%"/><linearGradient id="c" x1="49.998948%" x2="49.998948%" xlink:href="#a" y1="896.536635%" y2="-352.359227%"/><linearGradient id="d" x1="49.998844%" x2="49.998844%" y1="215.169856%" y2="-166.715419%"><stop offset=".3033" stop-color="#473788"/><stop offset=".8631" stop-color="#2c2255"/></linearGradient><g fill="#2c2255"><path d="m70.3816921 153.048902h-39.1206696c5.1797972 17.768316 14.7917438 33.693214 28.8638768 47.767683 22.4341059 22.436443 49.4101717 33.639477 80.9562357 33.639477 6.305941 0 12.415625-.469616 18.35008-1.364457 23.76118-3.586373 44.56448-14.329137 62.38887-32.27502 14.163252-14.069796 23.842954-29.999367 29.06247-47.767683h-15.875833-23.214463z"/><path d="m48.8097175 99.9145092h-20.4364846c-.7476477 4.4905598-1.2569828 9.0745748-1.4882863 13.7754098h24.289207 12.1843223 175.8724561 16.0534c-.23364-4.700835-.742975-9.28485-1.497632-13.7754098"/><path d="m26.8849466 126.481706c.2313035 4.703171.7383022 9.287187 1.4882863 13.77541h21.2472152 16.1048002 172.0711347 15.99499c.75232-4.488223 1.266328-9.072239 1.499968-13.77541"/><path d="m250.887228 87.1203867c-5.214843-17.8173809-14.896882-33.8170432-29.067143-47.9896413-17.777662-17.7776622-38.522552-28.4433249-62.206631-32.03203424-5.990528-.90885932-12.160959-1.38548478-18.532319-1.38548478-31.546064 0-58.5244662 11.14228822-80.9562357 33.41751902-14.0768058 14.1725981-23.6934252 30.1722604-28.870886 47.9896413"/></g><path d="m20.0930339 120.089317c0-60.3351751 45.3144641-110.46729461 104.2641541-119.28486552-1.462586-.05373718-2.932181-.11214717-4.408785-.11214717-66.1528094 0-119.78485505 53.45681569-119.78485505 119.39701269 0 65.942534 53.62970925 119.397013 119.78485505 119.397013 1.481277 0 2.950872-.056074 4.418131-.109811-58.959036-8.817571-104.2735001-58.94969-104.2735001-119.287202z" fill="#f7941e"/><g transform="translate(63.082781 99.461248)"><path d="m155.728022 14.2263353c-.38317-4.721863-1.177546-9.326906-2.364436-13.77541024h-150.72111841c-1.18689083 4.44616785-1.98360299 9.05121084-2.36677247 13.77541024z" fill="url(#b)"/><path d="m155.728022 27.0204578h-155.44999048c.38316948 4.7218629 1.17520884 9.3269059 2.36443607 13.7754102h150.72345441c1.186891-4.4485043 1.97893-9.0535473 2.3621-13.7754102z" fill="url(#c)"/><path d="m78.0030266 98.6357687c31.3007414 0 58.2814804-18.4411996 70.7064514-45.0481147h-141.41290303c12.42497143 26.6069151 39.40571033 45.0481147 70.70645163 45.0481147z" fill="url(#d)"/></g><g fill="#fff" transform="translate(25.700392 86.446774)"><path d="m26.1396352 40.0349319h11.4109741 155.8518507 20.473867 15.55341c.107475-2.0350038.168221-4.0840259.168221-6.1470665 0-2.2312613-.081774-4.4438315-.20794-6.647056h-15.516027-20.473867-155.8518511-12.2170318-24.14668666c-.12616556 2.2008881-.20793954 4.4157947-.20793954 6.647056 0 2.0630406.06074638 4.1120627.16822075 6.1470665z"/><path d="m44.2233657.67361312h-38.67208099c-1.27100122 4.16579993-2.09107737 8.43907422-2.87844393 12.79412248h19.91780392 16.9599224 151.1159699 21.401417 15.296406c-.789703-4.35271186-1.806036-8.62598615-3.074701-12.79412248"/><path d="m212.673081 53.8080057h-21.401417-151.1136331-16.1491918-21.33833471c.76633896 4.3527119 1.6378159 8.6236498 2.88778951 12.7941225h39.2678628 141.7773813 23.27521 15.158559c1.247637-4.1681363 2.254625-8.4390742 3.0233-12.7941225z"/></g></svg>

<?xml version="1.0" encoding="UTF-8" standalone="no"?>
<svg width="256px" height="240px" viewBox="0 0 256 240" version="1.1" xmlns="http://www.w3.org/2000/svg" xmlns:xlink="http://www.w3.org/1999/xlink" preserveAspectRatio="xMidYMid">
    <defs>
        <linearGradient x1="49.9996994%" y1="1089.3962%" x2="49.9996994%" y2="-159.499661%" id="linearGradient-1">
            <stop stop-color="#473788" offset="30.33%"></stop>
            <stop stop-color="#2C2255" offset="87.2%"></stop>
        </linearGradient>
        <linearGradient x1="49.9989479%" y1="896.536635%" x2="49.9989479%" y2="-352.359227%" id="linearGradient-2">
            <stop stop-color="#473788" offset="30.33%"></stop>
            <stop stop-color="#2C2255" offset="87.2%"></stop>
        </linearGradient>
        <linearGradient x1="49.9988435%" y1="215.169856%" x2="49.9988435%" y2="-166.715419%" id="linearGradient-3">
            <stop stop-color="#473788" offset="30.33%"></stop>
            <stop stop-color="#2C2255" offset="86.31%"></stop>
        </linearGradient>
    </defs>
	<g>
		<g>
			<path d="M70.3816921,153.048902 L31.2610225,153.048902 C36.4408197,170.817218 46.0527663,186.742116 60.1248993,200.816585 C82.5590052,223.253028 109.535071,234.456062 141.081135,234.456062 C147.387076,234.456062 153.49676,233.986446 159.431215,233.091605 C183.192395,229.505232 203.995695,218.762468 221.820085,200.816585 C235.983337,186.746789 245.663039,170.817218 250.882555,153.048902 L235.006722,153.048902 L211.792259,153.048902 L70.3816921,153.048902 L70.3816921,153.048902 Z" fill="#2C2255"></path>
			<path d="M48.8097175,99.9145092 L28.3732329,99.9145092 C27.6255852,104.405069 27.1162501,108.989084 26.8849466,113.689919 L51.1741536,113.689919 L63.3584759,113.689919 L239.230932,113.689919 L255.284332,113.689919 C255.050692,108.989084 254.541357,104.405069 253.7867,99.9145092" fill="#2C2255"></path>
			<path d="M26.8849466,126.481706 C27.1162501,131.184877 27.6232488,135.768893 28.3732329,140.257116 L49.6204481,140.257116 L65.7252483,140.257116 L237.796383,140.257116 L253.791373,140.257116 C254.543693,135.768893 255.057701,131.184877 255.291341,126.481706" fill="#2C2255"></path>
			<path d="M250.887228,87.1203867 C245.672385,69.3030058 235.990346,53.3033435 221.820085,39.1307454 C204.042423,21.3530832 183.297533,10.6874205 159.613454,7.09871116 C153.622926,6.18985184 147.452495,5.71322638 141.081135,5.71322638 C109.535071,5.71322638 82.5566688,16.8555146 60.1248993,39.1307454 C46.0480935,53.3033435 36.4314741,69.3030058 31.2540133,87.1203867" fill="#2C2255"></path>
			<path d="M20.0930339,120.089317 C20.0930339,59.7541419 65.407498,9.62202239 124.357188,0.80445148 C122.894602,0.750714296 121.425007,0.692304314 119.948403,0.692304314 C53.7955936,0.692304314 0.16354795,54.14912 0.16354795,120.089317 C0.16354795,186.031851 53.7932572,239.48633 119.948403,239.48633 C121.42968,239.48633 122.899275,239.430256 124.366534,239.376519 C65.407498,230.558948 20.0930339,180.426829 20.0930339,120.089317 L20.0930339,120.089317 Z" fill="#F7941E"></path>
		</g>
		<g transform="translate(63.082781, 99.461248)">
			<path d="M155.728022,14.2263353 C155.344852,9.5044723 154.550476,4.8994293 153.363586,0.450925062 L2.64246759,0.450925062 C1.45557676,4.89709291 0.658864599,9.5021359 0.275695116,14.2263353 L155.728022,14.2263353 L155.728022,14.2263353 Z" fill="url(#linearGradient-1)"></path>
			<path d="M155.728022,27.0204578 L0.278031515,27.0204578 C0.661200998,31.7423207 1.45324036,36.3473637 2.64246759,40.795868 L153.365922,40.795868 C154.552813,36.3473637 155.344852,31.7423207 155.728022,27.0204578 L155.728022,27.0204578 Z" fill="url(#linearGradient-2)"></path>
			<path d="M78.0030266,98.6357687 C109.303768,98.6357687 136.284507,80.1945691 148.709478,53.587654 L7.29657497,53.587654 C19.7215464,80.1945691 46.7022853,98.6357687 78.0030266,98.6357687 L78.0030266,98.6357687 Z" fill="url(#linearGradient-3)"></path>
		</g>
		<g transform="translate(25.700392, 86.446774)" fill="#FFFFFF">
			<path d="M26.1396352,40.0349319 L37.5506093,40.0349319 L193.40246,40.0349319 L213.876327,40.0349319 L229.429737,40.0349319 C229.537212,37.9999281 229.597958,35.950906 229.597958,33.8878654 C229.597958,31.6566041 229.516184,29.4440339 229.390018,27.2408094 L213.873991,27.2408094 L193.400124,27.2408094 L37.5482729,27.2408094 L25.3312411,27.2408094 L1.18455444,27.2408094 C1.05838888,29.4416975 0.976614902,31.6566041 0.976614902,33.8878654 C0.976614902,35.950906 1.03736128,37.9999281 1.14483565,40.0349319 L26.1396352,40.0349319 L26.1396352,40.0349319 Z"></path>
			<path d="M44.2233657,0.673613119 L5.55128471,0.673613119 C4.28028349,4.83941305 3.46020734,9.11268734 2.67284078,13.4677356 L22.5906447,13.4677356 L39.5505671,13.4677356 L190.666537,13.4677356 L212.067954,13.4677356 L227.36436,13.4677356 C226.574657,9.11502374 225.558324,4.84174945 224.289659,0.673613119"></path>
			<path d="M212.673081,53.8080057 L191.271664,53.8080057 L40.1580309,53.8080057 L24.0088391,53.8080057 L2.67050439,53.8080057 C3.43684335,58.1607176 4.30832029,62.4316555 5.5582939,66.6021282 L44.8261567,66.6021282 L186.603538,66.6021282 L209.878748,66.6021282 L225.037307,66.6021282 C226.284944,62.4339919 227.291932,58.163054 228.060607,53.8080057 L212.673081,53.8080057 L212.673081,53.8080057 Z"></path>
		</g>
	</g>
</svg>
